contributed-vectors/does_not_commute.svg

<?xml version="1.0" encoding="UTF-8" standalone="no"?>
<svg
   xmlns:dc="http://purl.org/dc/elements/1.1/"
   xmlns:cc="http://creativecommons.org/ns#"
   xmlns:rdf="http://www.w3.org/1999/02/22-rdf-syntax-ns#"
   xmlns:svg="http://www.w3.org/2000/svg"
   xmlns="http://www.w3.org/2000/svg"
   xmlns:sodipodi="http://sodipodi.sourceforge.net/DTD/sodipodi-0.dtd"
   xmlns:inkscape="http://www.inkscape.org/namespaces/inkscape"
   viewBox="0 0 192 192"
   version="1.1"
   id="svg16"
   sodipodi:docname="does_not_commute.svg"
   inkscape:version="0.92.4 (5da689c313, 2019-01-14)">
  <metadata
     id="metadata20">
    <rdf:RDF>
      <cc:Work
         rdf:about="">
        <dc:format>image/svg+xml</dc:format>
        <dc:type
           rdf:resource="http://purl.org/dc/dcmitype/StillImage" />
        <dc:title></dc:title>
      </cc:Work>
    </rdf:RDF>
  </metadata>
  <sodipodi:namedview
     pagecolor="#ffffff"
     bordercolor="#666666"
     borderopacity="1"
     objecttolerance="10"
     gridtolerance="10"
     guidetolerance="10"
     inkscape:pageopacity="0"
     inkscape:pageshadow="2"
     inkscape:window-width="1920"
     inkscape:window-height="1017"
     id="namedview18"
     showgrid="true"
     inkscape:zoom="2.4583333"
     inkscape:cx="114.91525"
     inkscape:cy="98.440681"
     inkscape:window-x="-8"
     inkscape:window-y="-8"
     inkscape:window-maximized="1"
     inkscape:current-layer="svg16"
     inkscape:snap-global="false">
    <inkscape:grid
       type="xygrid"
       id="grid827"
       spacingx="4"
       spacingy="4" />
  </sodipodi:namedview>
  <defs
     id="defs4">
    <style
       id="style2">.a{fill:none;stroke:#b1b5bd;stroke-linecap:round;stroke-linejoin:round;isolation:isolate;opacity:0.63;}</style>
  </defs>
  <rect
     class="a"
     x="20"
     y="20"
     width="152"
     height="152"
     rx="10"
     id="rect6"
     style="fill:#83868c;stroke:none;opacity:1" />
  <rect
     style="opacity:1;vector-effect:none;fill:#f8c18c;fill-opacity:1;fill-rule:evenodd;stroke:none;stroke-width:16;stroke-linecap:round;stroke-linejoin:round;stroke-miterlimit:4;stroke-dasharray:none;stroke-opacity:1;paint-order:stroke fill markers"
     id="rect829"
     width="80"
     height="80"
     x="56"
     y="56"
     ry="40" />
  <rect
     style="opacity:1;vector-effect:none;fill:#56595b;fill-opacity:1;fill-rule:evenodd;stroke:none;stroke-width:16;stroke-linecap:round;stroke-linejoin:round;stroke-miterlimit:4;stroke-dasharray:none;stroke-opacity:1;paint-order:stroke fill markers"
     id="rect831"
     width="72"
     height="72"
     x="60"
     y="60"
     ry="36" />
  <path
     style="opacity:1;vector-effect:none;fill:#f8c18c;fill-opacity:1;fill-rule:evenodd;stroke:#f8c18c;stroke-width:8;stroke-linecap:round;stroke-linejoin:round;stroke-miterlimit:4;stroke-dasharray:none;stroke-opacity:1;paint-order:stroke fill markers"
     d="M 85.513672 77.654297 C 83.177332 77.654297 82.394531 79.96875 82.394531 79.96875 L 80.986328 86.105469 C 80.986328 86.105469 80.140959 88.535698 76.960938 89.728516 C 74.725763 90.566924 70.117188 91.841797 70.117188 91.841797 C 70.117188 91.841797 67.967277 91.931681 68.003906 94.960938 C 68.025476 96.744258 68.216107 99.02366 68.445312 101.21289 C 68.790385 104.50883 71.244141 104.01172 71.244141 104.01172 L 75.955078 104.01172 C 75.954863 104.03607 75.951172 104.05958 75.951172 104.08398 C 75.951172 108.53642 79.535841 112.12109 83.988281 112.12109 C 88.440721 112.12109 92.023438 108.53642 92.023438 104.08398 C 92.023438 104.05958 92.019746 104.03607 92.019531 104.01172 L 99.927734 104.01172 C 99.927519 104.03607 99.923828 104.05958 99.923828 104.08398 C 99.923828 108.53642 103.50654 112.12109 107.95898 112.12109 C 112.41142 112.12109 115.99609 108.53642 115.99609 104.08398 C 115.99609 104.05958 115.9924 104.03607 115.99219 104.01172 L 121.01953 104.01172 C 121.01953 104.01172 123.56263 104.29903 123.65234 101.20117 C 123.70964 99.221811 123.74345 97.240807 123.85352 95.263672 C 124.05302 91.679738 121.94336 91.640625 121.94336 91.640625 L 109.76562 89.326172 C 109.76562 89.326172 107.38429 88.60114 106.14258 85.703125 C 105.26778 83.661424 104.03125 79.464844 104.03125 79.464844 C 104.03125 79.464844 103.9231 77.654297 101.11133 77.654297 L 85.513672 77.654297 z "
     id="rect835-8" />
  <rect
     style="opacity:1;vector-effect:none;fill:#56595b;fill-opacity:1;fill-rule:evenodd;stroke:none;stroke-width:10.71586037;stroke-linecap:round;stroke-linejoin:round;stroke-miterlimit:4;stroke-dasharray:none;stroke-opacity:1;paint-order:stroke fill markers"
     id="rect835"
     width="16.073792"
     height="16.073792"
     x="75.9505"
     y="96.046448"
     ry="8.0368958" />
  <rect
     style="opacity:1;vector-effect:none;fill:#56595b;fill-opacity:1;fill-rule:evenodd;stroke:none;stroke-width:10.71586132;stroke-linecap:round;stroke-linejoin:round;stroke-miterlimit:4;stroke-dasharray:none;stroke-opacity:1;paint-order:stroke fill markers"
     id="rect835-1"
     width="16.073792"
     height="16.073792"
     x="99.923012"
     y="96.046448"
     ry="8.0368958" />
  <path
     style="fill:#56595b;stroke:none;stroke-width:0.69970345px;stroke-linecap:butt;stroke-linejoin:miter;stroke-opacity:1"
     d="m 68.445476,101.21262 c 0.345073,3.29594 2.798814,2.79882 2.798814,2.79882 h 49.77487 c 0,0 2.54432,0.28727 2.63403,-2.81059 0.0573,-1.979358 0.0912,-3.960039 0.20127,-5.937174 0.1995,-3.583934 -1.91198,-3.622687 -1.91198,-3.622687 l -12.17625,-2.314494 c 0,0 -2.38098,-0.724673 -3.62269,-3.622688 -0.8748,-2.041701 -2.11323,-6.23907 -2.11323,-6.23907 0,0 -0.1065,-1.811344 -2.91827,-1.811344 H 85.514355 c -2.33634,0 -3.119536,2.314495 -3.119536,2.314495 l -1.408822,6.138441 c 0,0 -0.845186,2.429868 -4.025208,3.622686 -2.235174,0.838408 -6.842853,2.113234 -6.842853,2.113234 0,0 -2.149862,0.09028 -2.113233,3.119536 0.02157,1.78332 0.211568,4.061607 0.440773,6.250835 z"
     id="path852"
     inkscape:connector-curvature="0"
     sodipodi:nodetypes="sccssccscssccscss" />
</svg>

<svg xmlns="http://www.w3.org/2000/svg" viewBox="0 0 192 192"><rect width="152" height="152" x="20" y="20" rx="10" style="fill:#83868c;stroke:none;opacity:1;stroke-linecap:round;stroke-linejoin:round;isolation:isolate"/><rect width="80" height="80" x="56" y="56" ry="40" style="opacity:1;vector-effect:none;fill:#f8c18c;fill-opacity:1;fill-rule:evenodd;stroke:none;stroke-width:16;stroke-linecap:round;stroke-linejoin:round;stroke-miterlimit:4;stroke-dasharray:none;stroke-opacity:1;paint-order:stroke fill markers"/><rect width="72" height="72" x="60" y="60" ry="36" style="opacity:1;vector-effect:none;fill:#56595b;fill-opacity:1;fill-rule:evenodd;stroke:none;stroke-width:16;stroke-linecap:round;stroke-linejoin:round;stroke-miterlimit:4;stroke-dasharray:none;stroke-opacity:1;paint-order:stroke fill markers"/><path d="M85.514 77.654c-2.337 0-3.12 2.315-3.12 2.315l-1.408 6.136s-.845 2.43-4.025 3.624c-2.235.838-6.844 2.113-6.844 2.113s-2.15.09-2.113 3.119c.021 1.783.212 4.063.441 6.252.345 3.296 2.8 2.799 2.8 2.799h4.71c0 .024-.004.048-.004.072a8.02 8.02 0 0 0 8.037 8.037 8.018 8.018 0 0 0 8.035-8.037l-.003-.072h7.908c0 .024-.004.048-.004.072a8.018 8.018 0 0 0 8.035 8.037 8.02 8.02 0 0 0 8.037-8.037c0-.024-.004-.048-.004-.072h5.028s2.543.287 2.632-2.81c.058-1.98.091-3.961.202-5.938.199-3.584-1.91-3.623-1.91-3.623l-12.178-2.315s-2.382-.725-3.623-3.623c-.875-2.042-2.112-6.238-2.112-6.238s-.108-1.81-2.92-1.81H85.514z" style="opacity:1;vector-effect:none;fill:#f8c18c;fill-opacity:1;fill-rule:evenodd;stroke:#f8c18c;stroke-width:8;stroke-linecap:round;stroke-linejoin:round;stroke-miterlimit:4;stroke-dasharray:none;stroke-opacity:1;paint-order:stroke fill markers"/><rect width="16.074" height="16.074" x="75.951" y="96.046" ry="8.037" style="opacity:1;vector-effect:none;fill:#56595b;fill-opacity:1;fill-rule:evenodd;stroke:none;stroke-width:10.71586037;stroke-linecap:round;stroke-linejoin:round;stroke-miterlimit:4;stroke-dasharray:none;stroke-opacity:1;paint-order:stroke fill markers"/><rect width="16.074" height="16.074" x="99.923" y="96.046" ry="8.037" style="opacity:1;vector-effect:none;fill:#56595b;fill-opacity:1;fill-rule:evenodd;stroke:none;stroke-width:10.71586132;stroke-linecap:round;stroke-linejoin:round;stroke-miterlimit:4;stroke-dasharray:none;stroke-opacity:1;paint-order:stroke fill markers"/><path d="M68.445 101.213c.346 3.296 2.8 2.798 2.8 2.798h49.774s2.544.288 2.634-2.81c.057-1.98.091-3.96.201-5.937.2-3.584-1.912-3.623-1.912-3.623l-12.176-2.315s-2.38-.724-3.622-3.622c-.875-2.042-2.114-6.24-2.114-6.24s-.106-1.81-2.918-1.81H85.514c-2.336 0-3.12 2.314-3.12 2.314l-1.408 6.138s-.845 2.43-4.025 3.623c-2.235.838-6.843 2.113-6.843 2.113s-2.15.09-2.113 3.12c.021 1.783.211 4.061.44 6.25z" style="fill:#56595b;stroke:none;stroke-width:.69970345px;stroke-linecap:butt;stroke-linejoin:miter;stroke-opacity:1"/></svg>
